plasma/desktoptheme/Materia/icons/kdeconnect.svg

<svg xmlns="http://www.w3.org/2000/svg" width="32" height="32" version="1.1">
 <defs id="materia">
  <style id="current-color-scheme" type="text/css">
   .ColorScheme-Background {color:#181818; } .ColorScheme-ButtonBackground { color:#343434; } .ColorScheme-Highlight { color:#1a73e8; } .ColorScheme-Text { color:#dfdfdf; } .ColorScheme-ViewBackground { color:#242424; } .ColorScheme-NegativeText { color:#ff4747; }
  </style>
 </defs>
 <g id="22-22-kdeconnect" transform="translate(32.000001,10.000001)">
  <rect style="opacity:0.001" width="22" height="22" x="0" y="0" rx="0" ry="0"/>
  <path style="fill:currentColor" class="ColorScheme-Text" transform="translate(-32,-10)" d="m 39,13 c -1,0 -1,1 -1,1 v 14 c 0,0 0,1 1,1 h 8 c 1,0 1,-1 1,-1 V 14 c 0,0 0,-1 -1,-1 z m 7,3 v 9 h -6 v -8.998047 z m -3.5,10 h 0.5 0.5 c 0.277,0 0.5,0.223 0.5,0.5 V 27 27.5 C 44,27.777 43.777,28 43.5,28 H 43 42.5 C 42.223,28 42,27.777 42,27.5 V 27 26.5 C 42,26.223 42.223,26 42.5,26 Z"/>
 </g>
 <g id="kdeconnect">
  <rect style="opacity:0.001" width="32" height="32" x="0" y="0" rx="0" ry="0"/>
  <path style="fill:currentColor" class="ColorScheme-Text" d="M 9.5 4 C 8.000001 4 8 5.5 8 5.5 L 8 26.5 C 8 26.5 8.000001 28 9.5 28 L 21.5 28 C 23 28 23 26.5 23 26.5 L 23 5.5 C 23 5.5 23 4 21.5 4 L 9.5 4 z M 20 8 L 20 22 L 11 22 L 11 8.0039062 L 20 8 z M 14.75 23 L 15.5 23 L 16.25 23 C 16.665499 23 17 23.3345 17 23.75 L 17 24.5 L 17 25.25 C 17 25.6655 16.665499 26 16.25 26 L 15.5 26 L 14.75 26 C 14.3345 26 14 25.6655 14 25.25 L 14 24.5 L 14 23.75 C 14 23.3345 14.3345 23 14.75 23 z"/>
 </g>
</svg>

<svg xmlns="http://www.w3.org/2000/svg" width="32" height="32" version="1.1">
 <g id="22-22-kdeconnect" transform="translate(32,10)">
  <rect style="opacity:0.001" width="22" height="22" x="0" y="0" rx="0" ry="0"/>
  <path style="fill:#dfdfdf" transform="translate(-32,-10)" d="M 39 13 C 38 13 38 14 38 14 L 38 28 C 38 28 38 29 39 29 L 47 29 C 48 29 48 28 48 28 L 48 14 C 48 14 48 13 47 13 L 39 13 z M 46 16 L 46 25 L 40 25 L 40 16.001953 L 46 16 z M 42.5 26 L 43 26 L 43.5 26 C 43.777 26 44 26.223 44 26.5 L 44 27 L 44 27.5 C 44 27.777 43.777 28 43.5 28 L 43 28 L 42.5 28 C 42.223 28 42 27.777 42 27.5 L 42 27 L 42 26.5 C 42 26.223 42.223 26 42.5 26 z"/>
 </g>
 <g id="16-16-kdeconnect" transform="translate(54,-10)">
  <rect style="opacity:0.001" width="16" height="16" x="0" y="26" rx="0" ry="0"/>
  <path style="fill:#dfdfdf" transform="translate(-54,10)" d="M 58.798828 18 C 57.998828 18 58 18.75 58 18.75 L 58 29.25 C 58 29.25 57.9988 30 58.798828 30 L 65.199219 30 C 65.999219 30 66 29.25 66 29.25 L 66 18.75 C 66 18.75 65.999158 18 65.199219 18 L 58.798828 18 z M 60 20 L 62 20 L 64 20 L 64 26 L 60 26 L 60 20 z M 61.5 27 L 62 27 L 62.5 27 C 62.777 27 63 27.223 63 27.5 L 63 28 L 63 28.5 C 63 28.777 62.777 29 62.5 29 L 62 29 L 61.5 29 C 61.223 29 61 28.777 61 28.5 L 61 28 L 61 27.5 C 61 27.223 61.223 27 61.5 27 z"/>
 </g>
 <g id="kdeconnect">
  <rect style="opacity:0.001" width="32" height="32" x="0" y="0" rx="0" ry="0"/>
  <g transform="translate(0,-1)">
   <rect style="opacity:0.2" width="20" height="30" x="6" y="2" rx="1.5" ry="1.5"/>
   <path style="fill:#e4e4e4" d="M 7.5,1 C 6.669,1 6,1.669 6,2.5 V 4 H 26 V 2.5 C 26,1.669 25.331,1 24.5,1 Z M 6,26 v 3.5 C 6,30.331 6.669,31 7.5,31 h 17 C 25.331,31 26,30.331 26,29.5 V 26 Z"/>
   <rect style="fill:#3f3f3f" width="20" height="22" x="6" y="4"/>
   <rect style="fill:#333333" width="4" height="1" x="14" y="2" rx=".5" ry=".492"/>
   <rect style="fill:#4d4d4d" width="4" height="3" x="14" y="27" rx="1" ry="1"/>
   <path style="opacity:0.2;fill:#ffffff" d="M 7.5,1 C 6.669,1 6,1.669 6,2.5 v 1 C 6,2.669 6.669,2 7.5,2 h 17 C 25.331,2 26,2.669 26,3.5 v -1 C 26,1.669 25.331,1 24.5,1 Z"/>
   <rect style="fill:#4d4d4d" width="3" height="1" x="20" y="28" rx=".5" ry=".5"/>
   <rect style="fill:#4d4d4d" width="3" height="1" x="9" y="28" rx=".5" ry=".5"/>
   <circle style="fill:#333333" cx="19.5" cy="2.5" r=".5"/>
   <path style="opacity:0.2" d="M 17.016,7.975 14,8.5004 V 18.887 L 17,18.5 16.984,13.818 20.523,19 24,18.5 20,13.137 24.014,8.6371 20.494,7.9887 16.984,12.488 Z m -6.342,2.652 c -0.029,0.003 -0.056,0.016 -0.078,0.038 l -1.0355,1.046 c -0.0449,0.045 -0.0524,0.116 -0.0175,0.17 l 1.25,1.92 c -0.236,0.418 -0.414,0.877 -0.529,1.357 L 8.1055,15.687 C 8.0456,15.702 8,15.756 8,15.818 v 0.682 0.682 c 0,0.062 0.0456,0.116 0.1055,0.13 l 2.1585,0.53 c 0.115,0.48 0.293,0.939 0.529,1.357 l -1.25,1.92 c -0.0349,0.054 -0.0274,0.125 0.0175,0.17 l 1.0355,1.047 c 0.043,0.044 0.111,0.048 0.164,0.016 l 1.959,-1.202 c 0.384,0.224 0.985,0.404 1.424,0.524 l 0.459,2.217 C 14.614,23.955 14.665,24 14.729,24 h 0.771 0.771 c 0.064,0 0.115,-0.045 0.127,-0.109 l 0.459,-2.217 c 0.439,-0.12 1.04,-0.3 1.424,-0.524 l 1.959,1.202 c 0.053,0.032 0.121,0.028 0.164,-0.016 l 1.035,-1.047 c 0.045,-0.045 0.053,-0.116 0.018,-0.17 l -1.041,-1.599 -0.129,0.019 -0.73,-1.07 c -0.746,1.564 -2.324,2.56 -4.057,2.562 -2.485,0 -4.5,-2.014 -4.5,-4.5 10e-4,-1.708 0.97,-3.268 2.5,-4.027 v -0.983 c -0.285,0.096 -0.566,0.203 -0.781,0.329 L 10.76,10.649 c -0.027,-0.016 -0.057,-0.024 -0.086,-0.022 z"/>
   <path style="fill:#ffffff" d="M 17.016,6.975 14,7.5004 V 17.887 L 17,17.5 16.984,12.818 20.523,18 24,17.5 20,12.137 24.014,7.6371 20.494,6.9887 16.984,11.488 Z M 10.674,9.6274 C 10.645,9.6298 10.618,9.6425 10.596,9.6645 L 9.5605,10.711 c -0.0449,0.045 -0.0524,0.116 -0.0175,0.17 l 1.25,1.92 c -0.236,0.418 -0.414,0.877 -0.529,1.357 L 8.1055,14.687 C 8.0456,14.702 8,14.756 8,14.818 v 0.682 0.682 c 0,0.062 0.0456,0.116 0.1055,0.13 l 2.1585,0.53 c 0.115,0.48 0.293,0.939 0.529,1.357 l -1.25,1.92 c -0.0349,0.054 -0.0274,0.125 0.0175,0.17 l 1.0355,1.047 c 0.043,0.044 0.111,0.048 0.164,0.016 l 1.959,-1.202 c 0.384,0.224 0.985,0.404 1.424,0.524 l 0.459,2.217 C 14.614,22.955 14.665,23 14.729,23 h 0.771 0.771 c 0.064,0 0.115,-0.045 0.127,-0.109 l 0.459,-2.217 c 0.439,-0.12 1.04,-0.3 1.424,-0.524 l 1.959,1.202 c 0.053,0.032 0.121,0.028 0.164,-0.016 l 1.035,-1.047 c 0.045,-0.045 0.053,-0.116 0.018,-0.17 l -1.041,-1.599 -0.129,0.019 -0.73,-1.07 c -0.746,1.564 -2.324,2.56 -4.057,2.562 -2.485,0 -4.5,-2.014 -4.5,-4.5 10e-4,-1.708 0.97,-3.268 2.5,-4.027 v -0.983 c -0.285,0.096 -0.566,0.203 -0.781,0.329 L 10.76,9.6488 C 10.733,9.6328 10.703,9.6249 10.674,9.6274 Z"/>
   <rect style="opacity:0.2" width="20" height="1" x="6" y="4"/>
   <rect style="opacity:0.2;fill:#ffffff" width="20" height="1" x="6" y="26"/>
  </g>
 </g>
</svg>
